X:31
T:King's Polka. HS.31
M:2/4
L:1/8
Q:1/4=110
S:Henry Stables MS,Cumbria,late19thC
R:.Polka
O:Walthwaite,nr.Ambleside.
A:England
Z:vmp.Chris Partington
K:D
A(d/e/)f2|ggf2|fe (e/d/)e|ed (d/c/)d|!
A(d/e/)f2|ggf2|fe e/d/e|edd2:|!
|:aA (A/^G/)A|BA (A/^G/)A|fe (e/^d/)e|ed d/c/d|!
aA (A/^G/)A|BA A/^G/A|fe e/^d/e|edd2:|

